X: 28
T: Sanlengzi biandan jiandizi tong
L: 1/16
M: 2/4
K: D
B2A4F d [I:setbarnb 1]| 
F E D B, A,2 A, A, | 
D2> F2 E2 D B, | 
A8 | 
B2A4B d | 
F E D B, A,2 A, A, | 
D2> F2 E2 D B, | 
A,8 |]

@@@ Tune index: 8902
